X:1
T:St. Petersburg, 88.88.88
T:St. Petersburg, 88.88.88
T:Attr. to Dimitri Stepanovich Bortniansky, 1825
T:Public Domain Courtesy of the Cyber Hymnal™
C:Attr. to Dimitri Stepanovich Bortniansky, 1825
Z:Public Domain
Z:Courtesy of the Cyber Hymnal™
%%score ( 1 2 ) ( 3 4 )
L:1/8
M:3/4
K:C
V:1 treble 
V:2 treble 
V:3 bass 
V:4 bass 
V:1
 [EG]2 | [CE]4 [DF]2 | [EG]4 [Gc]2 | ([Fd]2 [Ec]2) [DB]2 | [Ec]4 [EG]2 | (A2 c2) [FA]2 | %6
 [EG]4 [CE]2 | (G2 F2) [CE]2 | [B,D]4 [EG]2 | [CE]4 [DF]2 | [EG]4 [Gc]2 | ([Fd]2 [Ec]2) [DB]2 | %12
 [Ec]4 [EG]2 | (A2 c2) [FA]2 | [EG]4 [CE]2 | (G2 F2) [CE]2 | [B,D]4 G2 | [FB]4 [FG]2 | %18
 [Ec]4 [EG]2 | ([Ge]2 [Fd]2) [Ec]2 | ([Ec]2 [DB]2) [FB]2 | ([Ec]2 [GB]2) [FA]2 | [EG]4 [DF]2 | %23
 [CE]4 [B,D]2 | C4 |] %25
V:2
 x2 | x6 | x6 | x6 | x6 | F4 x2 | x6 | D4 x2 | x6 | x6 | x6 | x6 | x6 | F4 x2 | x6 | D4 x2 | %16
 x4 G2 | x6 | x6 | x6 | x6 | x6 | x6 | x6 | C4 |] %25
V:3
 [C,G,]2 | (G,2 C2) [C,C]2 | [C,C]4 [E,C]2 | ([F,A,]2 G,2) [G,,G,]2 | [C,G,]4 [C,C]2 | %5
 (C2 A,2) [F,C]2 | [C,C]4 [C,G,]2 | [B,,G,]4 [C,G,]2 | [G,,G,]4 [C,G,]2 | (G,2 C2) [C,C]2 | %10
 [C,C]4 [E,C]2 | ([F,A,]2 G,2) [G,,G,]2 | [C,G,]4 [C,C]2 | (C2 A,2) [F,C]2 | [C,C]4 [C,G,]2 | %15
 [B,,G,]4 [C,G,]2 | [G,,G,]4 G,2 | [G,D]4 [G,D]2 | [G,C]4 [G,C]2 | (G,2 B,2) [G,C]2 | G,4 [G,D]2 | %21
 [C,C]4 [C,C]2 | (C2 G,2) [F,A,]2 | G,4 [G,,F,]2 | [C,E,]4 |] %25
V:4
 x2 | C,4 x2 | x6 | x2 G,2 x2 | x6 | F,4 x2 | x6 | x6 | x6 | C,4 x2 | x6 | x2 G,2 x2 | x6 | %13
 F,4 x2 | x6 | x6 | x4 G,2 | x6 | x6 | G,4 x2 | G,4 x2 | x6 | C,4 x2 | G,4 x2 | x4 |] %25

